images/Client1.svg

<svg width="170" height="92" viewBox="0 0 170 92" fill="none" xmlns="http://www.w3.org/2000/svg">
<rect x="0.5" y="0.5" width="169" height="91" rx="3.5" stroke="#AFB1B8"/>
<path fill-rule="evenodd" clip-rule="evenodd" d="M70 23L77.0078 29.6341L64 29.6265V61.8137H98V49.507L105 56.1338V23H70ZM97.6924 48.7283L77.8226 29.918H97.6924V48.7283ZM91.5231 57.1055H69.3801V35.4579H70.9453V55.6397H91.5231V57.1055ZM73.7959 67.7959L72.9707 66.0991H72.2896L73.4858 68.3452V69.6538H74.1035V68.3452L75.2998 66.0991H74.6211L73.7959 67.7959ZM76.8379 66.0991H76.9844L78.3271 69.6538H77.6826L77.395 68.8213H76.0189L75.7319 69.6538H75.0898L76.4277 66.0991H76.5718H76.8379ZM76.1864 68.3354H77.2271L76.7062 66.8274L76.1864 68.3354ZM80.4821 67.7465C80.4553 67.7124 80.4295 67.6792 80.4048 67.647C80.3136 67.5265 80.2428 67.4102 80.1924 67.2979C80.1419 67.1839 80.1167 67.0667 80.1167 66.9463C80.1167 66.7607 80.1549 66.6012 80.2314 66.4678C80.3079 66.3343 80.4162 66.2318 80.5562 66.1602C80.6961 66.0869 80.8597 66.0503 81.0469 66.0503C81.2275 66.0503 81.383 66.0869 81.5132 66.1602C81.645 66.2318 81.7459 66.327 81.8159 66.4458C81.8875 66.5646 81.9233 66.6948 81.9233 66.8364C81.9233 66.9487 81.903 67.0513 81.8623 67.144C81.8216 67.2368 81.7655 67.3215 81.6938 67.3979C81.6222 67.4744 81.5392 67.5469 81.4448 67.6152L81.1979 67.7949L81.9018 68.6257C81.925 68.58 81.946 68.5321 81.9648 68.4819C82.0251 68.3257 82.0552 68.1523 82.0552 67.9619H82.563C82.563 68.1344 82.5459 68.298 82.5117 68.4526C82.4792 68.6073 82.4263 68.7505 82.353 68.8823C82.3233 68.937 82.2897 68.9893 82.2522 69.0392L82.7729 69.6538H82.0918L81.8852 69.4108C81.7734 69.4957 81.6518 69.562 81.5205 69.6099C81.348 69.6717 81.1641 69.7026 80.9688 69.7026C80.7327 69.7026 80.5285 69.6595 80.356 69.5732C80.1834 69.487 80.05 69.3682 79.9556 69.2168C79.8628 69.0654 79.8164 68.8921 79.8164 68.6968C79.8164 68.5519 79.8465 68.425 79.9067 68.3159C79.967 68.2052 80.0492 68.1027 80.1533 68.0083C80.2495 67.921 80.3591 67.8338 80.4821 67.7465ZM80.7738 68.1036L80.7002 68.1572C80.6139 68.2272 80.5496 68.2948 80.5073 68.3599C80.4666 68.4233 80.4398 68.4819 80.4268 68.5356C80.4137 68.5894 80.4072 68.6366 80.4072 68.6772C80.4072 68.7814 80.4292 68.8758 80.4731 68.9604C80.5187 69.0451 80.5846 69.1126 80.6709 69.1631C80.7588 69.2119 80.8654 69.2363 80.9907 69.2363C81.1258 69.2363 81.2568 69.2062 81.3838 69.146C81.4474 69.115 81.5078 69.0777 81.5648 69.034L80.7738 68.1036ZM80.9143 67.4544L81.1323 67.3076C81.2349 67.2393 81.3081 67.1725 81.3521 67.1074C81.396 67.0407 81.418 66.9577 81.418 66.8584C81.418 66.7738 81.3854 66.6956 81.3203 66.624C81.2552 66.5524 81.1632 66.5166 81.0444 66.5166C80.9614 66.5166 80.8914 66.5361 80.8345 66.5752C80.7775 66.6126 80.7344 66.6631 80.7051 66.7266C80.6774 66.7884 80.6636 66.8576 80.6636 66.9341C80.6636 67.0073 80.6823 67.083 80.7197 67.1611C80.7572 67.2376 80.8084 67.3182 80.8735 67.4028C80.8868 67.4197 80.9004 67.4369 80.9143 67.4544ZM87.1333 68.4966H86.5229C86.505 68.6512 86.4676 68.7822 86.4106 68.8896C86.3553 68.9954 86.2731 69.076 86.1641 69.1313C86.0566 69.1867 85.9159 69.2144 85.7417 69.2144C85.5985 69.2144 85.4756 69.1859 85.373 69.1289C85.2705 69.0719 85.1859 68.9914 85.1191 68.8872C85.054 68.783 85.0052 68.6585 84.9727 68.5137C84.9417 68.3672 84.9263 68.2044 84.9263 68.0254V67.7251C84.9263 67.5363 84.9434 67.3687 84.9775 67.2222C85.0133 67.0741 85.0662 66.9495 85.1362 66.8486C85.2062 66.7477 85.2933 66.6712 85.3975 66.6191C85.5016 66.5671 85.6237 66.541 85.7637 66.541C85.9346 66.541 86.0729 66.5703 86.1787 66.6289C86.2845 66.6859 86.3643 66.7689 86.418 66.8779C86.4733 66.987 86.5091 67.118 86.5254 67.271H87.1357C87.1113 67.0334 87.0446 66.8226 86.9355 66.6387C86.8281 66.4548 86.6768 66.3107 86.4814 66.2065C86.2861 66.1024 86.0469 66.0503 85.7637 66.0503C85.5407 66.0503 85.3397 66.0894 85.1606 66.1675C84.9832 66.2456 84.8311 66.3587 84.7041 66.5068C84.5771 66.6533 84.4795 66.8299 84.4111 67.0366C84.3444 67.2433 84.311 67.4744 84.311 67.73V68.0254C84.311 68.2809 84.3436 68.512 84.4087 68.7188C84.4754 68.9255 84.5715 69.1021 84.6968 69.2485C84.8221 69.3934 84.9727 69.5057 85.1484 69.5854C85.3242 69.6636 85.522 69.7026 85.7417 69.7026C86.0282 69.7026 86.2715 69.6506 86.4717 69.5464C86.6719 69.4422 86.8273 69.2998 86.938 69.1191C87.0487 68.9368 87.1138 68.7293 87.1333 68.4966ZM90.5244 67.9741V67.7788C90.5244 67.5103 90.4886 67.2702 90.417 67.0586C90.347 66.8454 90.2469 66.6639 90.1167 66.5142C89.9865 66.3628 89.8311 66.248 89.6504 66.1699C89.4697 66.0902 89.2695 66.0503 89.0498 66.0503C88.8317 66.0503 88.6323 66.0902 88.4517 66.1699C88.2726 66.248 88.1172 66.3628 87.9854 66.5142C87.8551 66.6639 87.7542 66.8454 87.6826 67.0586C87.611 67.2702 87.5752 67.5103 87.5752 67.7788V67.9741C87.5752 68.2427 87.611 68.4836 87.6826 68.6968C87.7559 68.91 87.8584 69.0915 87.9902 69.2412C88.1221 69.3909 88.2775 69.5057 88.4565 69.5854C88.6372 69.6636 88.8366 69.7026 89.0547 69.7026C89.2744 69.7026 89.4746 69.6636 89.6553 69.5854C89.8359 69.5057 89.9906 69.3909 90.1191 69.2412C90.2493 69.0915 90.3494 68.91 90.4194 68.6968C90.4894 68.4836 90.5244 68.2427 90.5244 67.9741ZM89.9116 67.7739V67.9741C89.9116 68.1727 89.8921 68.3485 89.853 68.5015C89.8156 68.6545 89.7603 68.7839 89.687 68.8896C89.6138 68.9938 89.5243 69.0728 89.4185 69.1265C89.3127 69.1785 89.1914 69.2046 89.0547 69.2046C88.9196 69.2046 88.7992 69.1785 88.6934 69.1265C88.5876 69.0728 88.4964 68.9938 88.4199 68.8896C88.3451 68.7839 88.2881 68.6545 88.249 68.5015C88.21 68.3485 88.1904 68.1727 88.1904 67.9741V67.7739C88.1904 67.5754 88.21 67.4004 88.249 67.249C88.2881 67.096 88.3442 66.9683 88.4175 66.8657C88.4923 66.7616 88.5827 66.6834 88.6885 66.6313C88.7943 66.5776 88.9147 66.5508 89.0498 66.5508C89.1849 66.5508 89.3062 66.5776 89.4136 66.6313C89.521 66.6834 89.6113 66.7616 89.6846 66.8657C89.7594 66.9683 89.8156 67.096 89.853 67.249C89.8921 67.4004 89.9116 67.5754 89.9116 67.7739Z" fill="#AFB1B8"/>
</svg>

<svg xmlns="http://www.w3.org/2000/svg" fill="none" viewBox="0 0 170 92"><rect width="169" height="91" x=".5" y=".5" stroke="#AFB1B8" rx="3.5"/><path fill="#AFB1B8" fill-rule="evenodd" d="m70 23 7.008 6.634L64 29.626v32.188h34V49.507l7 6.627V23H70Zm27.692 25.728-19.87-18.81h19.87v18.81Zm-6.169 8.377H69.38V35.459h1.565V55.64h20.578v1.465Zm-17.727 10.69L72.97 66.1h-.681l1.196 2.246v1.309h.617v-1.309L75.3 66.1h-.679l-.825 1.697Zm3.042-1.696h.146l1.343 3.555h-.644l-.288-.833h-1.376l-.287.833h-.642l1.338-3.555H76.838Zm-.652 2.236h1.041l-.52-1.508-.52 1.508Zm4.296-.588a10.738 10.738 0 0 1-.077-.1 1.82 1.82 0 0 1-.213-.35.86.86 0 0 1-.075-.35c0-.186.038-.346.114-.48a.77.77 0 0 1 .325-.307c.14-.073.304-.11.49-.11.181 0 .337.037.467.11a.766.766 0 0 1 .35.984.893.893 0 0 1-.17.254 1.723 1.723 0 0 1-.248.217l-.247.18.704.83a1.409 1.409 0 0 0 .153-.663h.508c0 .172-.017.336-.051.49a1.522 1.522 0 0 1-.26.587l.52.615h-.68l-.207-.243a1.384 1.384 0 0 1-.365.199 1.624 1.624 0 0 1-.551.093c-.236 0-.44-.044-.613-.13a.97.97 0 0 1-.4-.356.975.975 0 0 1-.14-.52c0-.145.03-.272.09-.381.061-.11.143-.213.247-.308.096-.087.206-.174.33-.261Zm.292.357-.074.053a.914.914 0 0 0-.193.203.59.59 0 0 0-.034.6.514.514 0 0 0 .198.203.65.65 0 0 0 .32.073c.135 0 .266-.03.393-.09a1.06 1.06 0 0 0 .18-.112l-.79-.93Zm.14-.65.218-.146a.791.791 0 0 0 .22-.2.444.444 0 0 0 .066-.25.354.354 0 0 0-.374-.342.362.362 0 0 0-.339.21.502.502 0 0 0 .015.435 1.444 1.444 0 0 0 .194.293Zm6.22 1.043h-.611a1.106 1.106 0 0 1-.112.393.553.553 0 0 1-.247.241.923.923 0 0 1-.422.083.748.748 0 0 1-.369-.085.707.707 0 0 1-.254-.242 1.193 1.193 0 0 1-.146-.373 2.365 2.365 0 0 1-.047-.489v-.3c0-.189.017-.356.052-.503.035-.148.088-.272.158-.373.07-.101.157-.178.261-.23a.81.81 0 0 1 .367-.078c.17 0 .309.03.415.088.105.057.185.14.239.249.055.109.091.24.107.393h.61a1.53 1.53 0 0 0-.2-.632 1.129 1.129 0 0 0-.454-.432 1.51 1.51 0 0 0-.717-.157c-.223 0-.424.04-.603.118-.178.078-.33.19-.457.339a1.533 1.533 0 0 0-.293.53c-.067.206-.1.437-.1.693v.295c0 .256.033.487.098.694.066.207.162.383.288.53a1.3 1.3 0 0 0 .451.336c.176.079.374.118.594.118.286 0 .53-.052.73-.157.2-.104.355-.246.466-.427.11-.182.176-.39.195-.622Zm3.39-.523v-.195c0-.269-.035-.509-.107-.72a1.56 1.56 0 0 0-.3-.545 1.276 1.276 0 0 0-.467-.344c-.18-.08-.38-.12-.6-.12-.218 0-.418.04-.598.12-.18.078-.335.193-.467.344-.13.15-.23.331-.302.545a2.241 2.241 0 0 0-.108.72v.195c0 .269.036.51.108.723a1.6 1.6 0 0 0 .307.544 1.344 1.344 0 0 0 1.065.462c.22 0 .42-.04.6-.118.18-.08.336-.194.464-.344.13-.15.23-.331.3-.544.07-.213.105-.454.105-.723Zm-.612-.2v.2c0 .199-.02.374-.059.527a1.157 1.157 0 0 1-.166.389.73.73 0 0 1-.269.236.815.815 0 0 1-.363.079.809.809 0 0 1-.362-.079.771.771 0 0 1-.273-.236 1.165 1.165 0 0 1-.171-.389 2.144 2.144 0 0 1-.059-.527v-.2c0-.199.02-.374.059-.525.04-.153.095-.28.169-.383a.729.729 0 0 1 .27-.235.787.787 0 0 1 .362-.08c.135 0 .256.027.364.08.107.052.197.13.27.235.075.102.132.23.169.383.04.151.059.326.059.525Z" clip-rule="evenodd"/></svg>
